src/assets/imgs/service-i-1.svg

<svg width="73" height="73" viewBox="0 0 73 73" fill="none" xmlns="http://www.w3.org/2000/svg">
<rect x="0.919922" y="0.84375" width="72" height="72" rx="36" fill="#8A8A8E"/>
<path d="M43.0388 25.0844C42.7377 25.1922 42.3625 25.4359 42.2003 25.6281C42.1262 25.7125 41.7278 26.2984 41.3063 26.9359L40.542 28.0891L34.0567 28.1031L27.5714 28.1172L27.3305 28.2156C26.7561 28.4547 26.3392 28.9281 26.1863 29.5094C26.1122 29.7812 26.1075 30.3531 26.1214 36.2031L26.1353 42.6016L26.2836 42.9156C26.4735 43.3281 26.807 43.6656 27.2147 43.8578L27.525 44.0078L31.3838 44.0219C34.4041 44.0312 35.2425 44.0453 35.2286 44.0922C35.2194 44.1203 35.0943 44.6359 34.9553 45.2359L34.7052 46.3187L33.9177 46.3375C33.1672 46.3516 33.1209 46.3562 32.8939 46.4781C32.5975 46.6375 32.301 46.9703 32.2083 47.2516C32.1667 47.3734 32.1342 47.6031 32.1342 47.7672V48.0625H31.305C30.4897 48.0625 30.4666 48.0672 30.3415 48.175C30.2303 48.2734 30.2118 48.325 30.2118 48.5312C30.2118 48.7375 30.2303 48.7891 30.3415 48.8875L30.4712 49H36.8592H43.2472L43.377 48.8875C43.4881 48.7891 43.5067 48.7375 43.5067 48.5312C43.5067 48.325 43.4881 48.2734 43.377 48.175C43.2519 48.0672 43.2287 48.0625 42.4134 48.0625H41.5842V47.7672C41.5842 47.6031 41.5518 47.3734 41.5101 47.2516C41.4175 46.9703 41.121 46.6375 40.8245 46.4781C40.5975 46.3562 40.5512 46.3516 39.8008 46.3375L39.0133 46.3187L38.7631 45.2359C38.6242 44.6359 38.4991 44.1203 38.4898 44.0922C38.4759 44.0453 39.3144 44.0312 42.3347 44.0219L46.1934 44.0078L46.5038 43.8578C46.9114 43.6656 47.245 43.3281 47.4349 42.9156L47.5831 42.6016L47.597 36.2031C47.6109 29.0453 47.6294 29.4906 47.282 28.9469C46.9717 28.4594 46.4389 28.1547 45.8182 28.1078L45.4893 28.0797L45.5727 27.9062C45.8367 27.3578 45.8043 26.6031 45.4893 26.0219C45.3179 25.7031 44.9288 25.3516 44.5628 25.1734C44.2803 25.0422 44.1969 25.0234 43.7614 25.0141C43.3816 25 43.2241 25.0187 43.0388 25.0844ZM44.1042 26.05C44.5258 26.2281 44.813 26.7016 44.7667 27.1469C44.7528 27.2828 44.7018 27.4656 44.6508 27.55C44.6045 27.6297 43.8587 28.5672 43.0017 29.6266L41.436 31.5578L40.7828 31.0609C40.4215 30.7844 40.1297 30.5453 40.1389 30.5219C40.1436 30.4984 40.7736 29.5328 41.5379 28.375C42.8628 26.3687 42.9415 26.2609 43.1731 26.125C43.3631 26.0125 43.4696 25.9844 43.6827 25.9844C43.8309 25.9844 44.0162 26.0125 44.1042 26.05ZM39.8425 29.1344C39.8239 29.1672 39.3514 29.8844 38.7956 30.7281C37.6792 32.4297 37.832 32.2703 37.2252 32.3359C36.8361 32.3781 36.2292 32.6125 35.8725 32.8562C35.3352 33.2312 34.9414 33.8219 34.7422 34.5625C34.6403 34.9328 34.6264 36.3859 34.7191 36.8359C34.9646 38.0125 35.0341 38.1484 35.3954 38.1484C35.5575 38.1484 35.6409 38.1109 35.8447 37.9516C36.3497 37.5578 36.4053 37.5437 37.7394 37.5156C38.8187 37.4875 38.9438 37.4781 39.1847 37.3797C39.7637 37.15 40.2455 36.6437 40.4725 36.025C40.6068 35.6734 40.6439 35.0219 40.5558 34.6047L40.491 34.3L42.6033 31.6891L44.7111 29.0828L45.2947 29.0781C45.8506 29.0781 45.897 29.0875 46.1286 29.2094C46.3278 29.3125 46.4019 29.3875 46.5038 29.5891L46.6335 29.8375V34.4031V38.9688H39.2634H31.8933L31.759 39.1047C31.6525 39.2125 31.6247 39.2828 31.6247 39.4375C31.6247 39.6812 31.6849 39.7937 31.8563 39.8828C31.9721 39.9437 32.8708 39.9531 39.3144 39.9531H46.6381L46.6242 41.1906L46.6103 42.4281L46.4714 42.6297C46.3972 42.7375 46.2397 42.8781 46.1286 42.9391L45.9247 43.0469H36.8592H27.7937L27.5899 42.9391C27.4787 42.8781 27.3258 42.7375 27.2471 42.6297L27.1081 42.4281L27.0942 41.1906L27.0803 39.9531H27.7798C28.7017 39.9531 28.8453 39.8828 28.8453 39.4375C28.8453 39.2828 28.8175 39.2125 28.7109 39.1047L28.5766 38.9688H27.8308H27.085V34.4266C27.085 31.0797 27.0989 29.8469 27.1406 29.7297C27.2239 29.4766 27.3629 29.3219 27.6131 29.1953L27.8447 29.0781H33.8621C38.6612 29.0781 39.8703 29.0922 39.8425 29.1344ZM40.718 32.2656C40.7967 32.3406 40.7782 32.3687 40.3242 32.9312L39.8425 33.5172L39.3144 33.1281C39.0272 32.9125 38.7678 32.7156 38.7446 32.6922C38.7214 32.6687 38.8789 32.3969 39.1337 32.0172L39.5599 31.3844L40.0972 31.7875C40.3937 32.0078 40.6717 32.2234 40.718 32.2656ZM38.6983 33.9109C39.5228 34.5297 39.5367 34.5437 39.5877 34.7641C39.7128 35.3078 39.5923 35.8047 39.2634 36.1422C38.9253 36.4937 38.8789 36.5031 37.5772 36.5359C36.484 36.5641 36.4006 36.5687 36.0764 36.6859C35.8864 36.7562 35.7243 36.8031 35.7197 36.7984C35.678 36.7562 35.6085 36.0297 35.6085 35.6781C35.6131 34.5109 36.0393 33.7609 36.8917 33.4375C37.1696 33.3344 37.6004 33.25 37.7672 33.2687C37.8228 33.2781 38.2397 33.5641 38.6983 33.9109ZM37.7162 45.0625C37.8459 45.6156 37.9664 46.1266 37.9849 46.1969L38.0173 46.3281H36.8592C35.7706 46.3281 35.6965 46.3234 35.7197 46.2437C35.7336 46.2016 35.8494 45.7094 35.9791 45.1562C36.1088 44.6031 36.2246 44.1203 36.2339 44.0875C36.2524 44.0406 36.4006 44.0312 36.8685 44.0406L37.48 44.0547L37.7162 45.0625ZM40.4771 47.4484C40.5883 47.5656 40.6114 47.6219 40.6114 47.8234V48.0625H36.8592H33.107V47.8234C33.107 47.6219 33.1302 47.5656 33.2414 47.4484L33.3757 47.3125H36.8592H40.3428L40.4771 47.4484Z" fill="white"/>
<path d="M29.9058 39.1047C29.7993 39.2125 29.7715 39.2828 29.7715 39.4375C29.7715 39.5453 29.7946 39.6719 29.8178 39.7234C29.878 39.8313 30.1004 39.9531 30.244 39.9531C30.4246 39.9531 30.6424 39.7844 30.6887 39.6156C30.8184 39.1141 30.2625 38.7484 29.9058 39.1047Z" fill="white"/>
</svg>

<svg width="73" height="73" fill="none" xmlns="http://www.w3.org/2000/svg"><rect x=".92" y=".844" width="72" height="72" rx="36" fill="#8A8A8E"/><path d="M43.039 25.084c-.301.108-.677.352-.839.544-.074.084-.472.67-.894 1.308l-.764 1.153-6.485.014-6.486.014-.24.099c-.575.239-.992.712-1.145 1.293-.074.272-.078.844-.065 6.694l.014 6.399.149.314c.19.412.523.75.93.942l.311.15 3.859.014c3.02.01 3.858.023 3.845.07-.01.028-.135.544-.274 1.144l-.25 1.083-.787.018c-.75.015-.797.02-1.024.141-.297.16-.593.492-.686.774a1.92 1.92 0 0 0-.074.515v.295h-.829c-.815 0-.838.005-.963.113-.112.098-.13.15-.13.356s.018.258.13.357l.13.112H43.246l.13-.112c.111-.099.13-.15.13-.357 0-.206-.019-.258-.13-.356-.125-.108-.148-.112-.964-.112h-.829v-.296c0-.164-.032-.394-.074-.515-.093-.282-.389-.614-.685-.774-.228-.122-.274-.126-1.024-.14l-.788-.02-.25-1.082a57.72 57.72 0 0 0-.273-1.144c-.014-.047.824-.06 3.845-.07l3.858-.014.31-.15c.408-.192.742-.53.932-.942l.148-.314.014-6.399c.014-7.158.032-6.712-.315-7.256-.31-.488-.843-.792-1.464-.84l-.329-.027.084-.174c.264-.548.231-1.303-.084-1.884-.171-.319-.56-.67-.926-.849-.283-.13-.366-.15-.802-.159-.38-.014-.537.005-.722.07zm1.065.966c.422.178.709.652.663 1.097a1.18 1.18 0 0 1-.116.403c-.047.08-.792 1.017-1.65 2.077l-1.565 1.93-.653-.496c-.361-.277-.653-.516-.644-.54.005-.023.635-.988 1.399-2.146 1.325-2.006 1.404-2.114 1.635-2.25a.834.834 0 0 1 .51-.14c.148 0 .333.027.421.065zm-4.261 3.084c-.02.033-.492.75-1.047 1.594-1.117 1.702-.964 1.542-1.57 1.608-.39.042-.997.276-1.353.52-.538.375-.932.966-1.13 1.706-.103.37-.117 1.824-.024 2.274.246 1.177.315 1.312.676 1.312.162 0 .246-.037.45-.196.505-.394.56-.408 1.894-.436 1.08-.029 1.205-.038 1.446-.136.579-.23 1.06-.736 1.287-1.355.135-.352.172-1.003.084-1.42l-.065-.305 2.112-2.61 2.108-2.607.584-.005c.556 0 .602.01.834.131.199.104.273.178.375.38l.13.248v9.132h-14.74l-.135.136c-.107.108-.134.178-.134.333 0 .243.06.356.231.445.116.06 1.015.07 7.458.07h7.324l-.014 1.238-.014 1.237-.139.202a1.206 1.206 0 0 1-.342.31l-.204.107H27.794l-.204-.108a1.268 1.268 0 0 1-.343-.31l-.139-.2-.014-1.238-.014-1.238h.7c.922 0 1.065-.07 1.065-.516 0-.154-.027-.224-.134-.332l-.134-.136h-1.492v-4.542c0-3.347.014-4.58.056-4.697.083-.253.222-.408.472-.535l.232-.117h6.017c4.8 0 6.008.014 5.98.056zm.875 3.132c.079.075.06.103-.394.665l-.481.586-.529-.389a19.553 19.553 0 0 1-.57-.436c-.023-.023.135-.295.39-.675l.426-.633.537.404c.297.22.575.435.621.478zm-2.02 1.645c.825.619.839.633.89.853.125.544.004 1.04-.325 1.378-.338.352-.384.361-1.686.394-1.093.028-1.176.033-1.5.15a2.49 2.49 0 0 1-.357.112c-.042-.042-.111-.768-.111-1.12.004-1.167.43-1.917 1.283-2.24.278-.104.708-.188.875-.17.056.01.473.296.931.643zm-.982 11.151c.13.554.25 1.065.269 1.135l.032.131H36.86c-1.088 0-1.163-.005-1.14-.084.015-.042.13-.535.26-1.088s.246-1.036.255-1.069c.018-.046.167-.056.634-.046l.612.014.236 1.008zm2.761 2.386c.111.118.134.174.134.375v.24h-7.504v-.24c0-.201.023-.257.134-.375l.135-.136H40.343l.134.136z" fill="#fff"/><path d="M29.906 39.105c-.107.108-.134.178-.134.333 0 .107.023.234.046.285.06.108.282.23.426.23.18 0 .398-.169.445-.337.13-.502-.427-.868-.783-.511z" fill="#fff"/></svg>
